usr/share/icons/biglinux-icons-material-dark/22/devices/drive-harddisk.svg

<svg width="22" height="22" version="1.1" xmlns="http://www.w3.org/2000/svg">
 <defs>
  <style id="current-color-scheme" type="text/css">.ColorScheme-Text { color:#dedede; }</style>
 </defs>
 <g class="ColorScheme-Text" transform="translate(2.9999 3)" fill="currentColor">
  <path d="m5.0001 2c-1.4995 0-2.5425 1.0366-2.9316 2.0332l-2.8691 7.4844c-0.003232 0.0076-0.004654 0.01581-0.007813 0.02344l-0.058594 0.15039h0.011719c-0.08705 0.25475-0.14453 0.52362-0.14453 0.80859 0 1.385 1.115 2.5 2.5 2.5h13c1.385 0 2.5-1.115 2.5-2.5 0-0.28498-0.05748-0.55384-0.14453-0.80859h0.01172l-0.05859-0.15039-0.0039-0.01563c-0.0011-0.0027-0.0028-0.0051-0.0039-0.0078l-2.8692-7.4844c-0.38916-0.99659-1.4322-2.0332-2.9316-2.0332h-3.0001zm0 1h6c1.108 0 1.7085 0.6499 2 1.3965l2.1875 5.7109c-0.21961-0.0627-0.44722-0.10742-0.6875-0.10742h-13c-0.24028 0-0.46789 0.04472-0.6875 0.10742l2.1875-5.7109c0.29153-0.74658 0.892-1.3965 2-1.3965zm-3.5 8h13c0.831 0 1.5 0.669 1.5 1.5s-0.669 1.5-1.5 1.5h-13c-0.831 0-1.5-0.669-1.5-1.5s0.669-1.5 1.5-1.5z"/>
  <circle cx="12.5" cy="12.5" r=".5"/>
  <circle cx="10.5" cy="12.5" r=".5"/>
  <circle cx="8.5" cy="12.5" r=".5"/>
 </g>
</svg>

<svg xmlns="http://www.w3.org/2000/svg" width="22" height="22">
<defs>
<style id="current-color-scheme" type="text/css">
.ColorScheme-Text{color:#dedede}
</style>
</defs>
<g fill="currentColor" class="ColorScheme-Text" transform="translate(3 3)">
<path d="M5 2C3.5 2 2.458 3.037 2.07 4.033L-.8 11.518l-.007.023-.059.15h.012A2.5 2.5 0 0 0-1 12.5C-1 13.885.115 15 1.5 15h13c1.385 0 2.5-1.115 2.5-2.5 0-.285-.057-.554-.144-.809h.011l-.058-.15-.004-.016-.004-.007-2.87-7.485C13.544 3.037 12.5 2 11.002 2H8zm0 1h6c1.108 0 1.709.65 2 1.397l2.188 5.71A2.5 2.5 0 0 0 14.5 10h-13c-.24 0-.468.045-.687.107L3 4.397C3.292 3.65 3.892 3 5 3m-3.5 8h13c.831 0 1.5.669 1.5 1.5s-.669 1.5-1.5 1.5h-13C.67 14 0 13.331 0 12.5S.67 11 1.5 11"/>
<circle cx="12.5" cy="12.5" r=".5"/>
<circle cx="10.5" cy="12.5" r=".5"/>
<circle cx="8.5" cy="12.5" r=".5"/>
</g>
</svg>
